X: 35196
T: Rooskey, The
R: polka
M: 2/4
K: Gmajor
|d>^c de/f/|g/f/e/d/ BG|Bd gg/a/|ba aB/c/|
d>^c de/f/|g/f/e/d/ BG|Bd gg/a/|ba g2:|:
Bd gg/a/|ba a/b/a/g/|fd fa|gf ed
Bd gg/a/|ba a/b/a/g/|fd fa|gg/f/ g:|

